!!!!SEGMENT: pl-kk--kk-i-336--001_gorczycki-grzegorz-gerwazy--ave-hierarchia.krn
!!!cenid: 17xx:2052
!!!COM: Gorczycki, Grzegorz Gerwazy
!!!COM-rismID: pe30009207
!!!CDT: ~1666-1734/04/30
!!!CNT: Polish
!!!OTL: Ave Hierarchia
!!!PDT:
!!!AGN: Sacred
!!!SMS-siglum: PL-Kk
!!!SMS-shelfmark: Kk.I.336
!!!SMS-shelfwork: 001 W
!!!SMS-variant: Basso: pl-kk--i-336--0011-0012
!!!SMS-altvar: Basso Ripieno: pl-kk--i-336--0013
!!!NIFC-rismSourceID: 1001143632
!!!NIFC-islandoraID: pl-kk:5623
!!!URL-pdf-islandora: https://repozytorium.nifc.pl/islandora/object/pl-kk%3A5623/datastream/PDF/view
!!!URL-scan: https://polish.musicsources.pl/pl/lokalizacje/galeria/rekopisy/5953 @EN{Scan on Polish Music Sources Website} @PL{Skany w portalu Dziedzictwo Muzyki Polskiej w otwartym dostępie}
!!!ONB-nifc: UWAGA: utwory w zbiorze: 1. Ave Hierarchia, 2. Puer natus
!!!AIN: 1 alto 2 empty 2 tenor 1 vox
!!!key:
**kern	**text	**text	**text	**text	**text	**kern	**text	**text	**text	**text	**text	**kern	**text	**text	**text	**text	**text	**kern	**text	**text	**text	**text	**text	**kern	**text	**text	**text	**text	**text	**kern	**text	**text	**text	**text	**text
*part6	*part6	*part6	*part6	*part6	*part6	*part5	*part5	*part5	*part5	*part5	*part5	*part4	*part4	*part4	*part4	*part4	*part4	*part3	*part3	*part3	*part3	*part3	*part3	*part2	*part2	*part2	*part2	*part2	*part2	*part1	*part1	*part1	*part1	*part1	*part1
*staff6	*staff6	*staff6	*staff6	*staff6	*staff6	*staff5	*staff5	*staff5	*staff5	*staff5	*staff5	*staff4	*staff4	*staff4	*staff4	*staff4	*staff4	*staff3	*staff3	*staff3	*staff3	*staff3	*staff3	*staff2	*staff2	*staff2	*staff2	*staff2	*staff2	*staff1	*staff1	*staff1	*staff1	*staff1	*staff1
*Iempty	*	*	*	*	*	*Iempty	*	*	*	*	*	*Itenor	*	*	*	*	*	*Itenor	*	*	*	*	*	*Ialto	*	*	*	*	*	*Ivox	*	*	*	*	*
*I"Baſso Ripieno.	*	*	*	*	*	*I"Baſso a 5. vel. 4.	*	*	*	*	*	*I"Tenore 2do ad libitum.	*	*	*	*	*	*I"Tenore 1o.	*	*	*	*	*	*I"Alto.	*	*	*	*	*	*I"Canto.	*	*	*	*	*
*I'B. rip.	*	*	*	*	*	*I'B.	*	*	*	*	*	*I'T. 2	*	*	*	*	*	*I'T. 1	*	*	*	*	*	*I'A.	*	*	*	*	*	*I'C.	*	*	*	*	*
*clefF4	*	*	*	*	*	*clefF4	*	*	*	*	*	*clefC4	*	*	*	*	*	*clefC4	*	*	*	*	*	*clefC3	*	*	*	*	*	*clefC1	*	*	*	*	*
*k[b-]	*	*	*	*	*	*k[b-]	*	*	*	*	*	*k[b-]	*	*	*	*	*	*k[b-]	*	*	*	*	*	*k[b-]	*	*	*	*	*	*k[b-]	*	*	*	*	*
*F:	*	*	*	*	*	*F:	*	*	*	*	*	*F:	*	*	*	*	*	*F:	*	*	*	*	*	*F:	*	*	*	*	*	*F:	*	*	*	*	*
*M2/2	*	*	*	*	*	*M2/2	*	*	*	*	*	*M2/2	*	*	*	*	*	*M2/2	*	*	*	*	*	*M2/2	*	*	*	*	*	*M2/2	*	*	*	*	*
*met(c|)	*	*	*	*	*	*met(c|)	*	*	*	*	*	*met(c|)	*	*	*	*	*	*met(c|)	*	*	*	*	*	*met(c|)	*	*	*	*	*	*met(c|)	*	*	*	*	*
=1-	=1-	=1-	=1-	=1-	=1-	=1-	=1-	=1-	=1-	=1-	=1-	=1-	=1-	=1-	=1-	=1-	=1-	=1-	=1-	=1-	=1-	=1-	=1-	=1-	=1-	=1-	=1-	=1-	=1-	=1-	=1-	=1-	=1-	=1-	=1-
!LO:TX:a:t=Na prośbę NIFC zapis basso ripieno skomasowany według zapisu pięciu pozostałych głosów. \nRóżnic w dźwiękach między trzema powtórzeniami partii basso ripieno nie ma. Tylko różnice caud.	!	!	!	!	!	!	!	!	!	!	!	!	!	!	!	!	!	!	!	!	!	!	!	!	!	!	!	!	!	!	!	!	!	!	!
00r	.	.	.	.	.	00r	.	.	.	.	.	00r	.	.	.	.	.	00r	.	.	.	.	.	0r	.	.	.	.	.	2f/	1. A-	2 Ma-	3 Ta	4. Vir-	5. Tu
!	!	!	!	!	!	!	!	!	!	!	!	!	!	!	!	!	!	!	!	!	!	!	!	!	!	!	!	!	!	!LO:TX:t=P:problem=kreska pseudotaktowa	!	!	!	!	!
.	.	.	.	.	.	.	.	.	.	.	.	.	.	.	.	.	.	.	.	.	.	.	.	.	.	.	.	.	.	2f/	-ve	-ri-	es	-go	mun-
*	*	*	*	*	*	*	*	*	*	*	*	*	*	*	*	*	*	*	*	*	*	*	*	*	*	*	*	*	*	*2\right	*	*	*	*	*
.	.	.	.	.	.	.	.	.	.	.	.	.	.	.	.	.	.	.	.	.	.	.	.	.	.	.	.	.	.	2a\	Hie-	-a	C(a)e-	De-	-di
!	!	!	!	!	!	!	!	!	!	!	!	!	!	!	!	!	!	!	!	!	!	!	!	!	!	!	!	!	!	!LO:TX:t=P:problem=kreska pseudotaktowa	!	!	!	!	!
.	.	.	.	.	.	.	.	.	.	.	.	.	.	.	.	.	.	.	.	.	.	.	.	.	.	.	.	.	.	2b-\	-rar-	Be-	-li	-o	O-
=2-	=2-	=2-	=2-	=2-	=2-	=2-	=2-	=2-	=2-	=2-	=2-	=2-	=2-	=2-	=2-	=2-	=2-	=2-	=2-	=2-	=2-	=2-	=2-	=2-	=2-	=2-	=2-	=2-	=2-	=2-	=2-	=2-	=2-	=2-	=2-
!	!	!	!	!	!	!	!	!	!	!	!	!	!	!	!	!	!	!	!	!	!	!	!	!	!	!	!	!	!	!LO:TX:t=P:problem=kreska pseudotaktowa	!	!	!	!	!
.	.	.	.	.	.	.	.	.	.	.	.	.	.	.	.	.	.	.	.	.	.	.	.	2c/	1. A-	2. Ma-	3. Tu	4. Vir-	5. Tu	1cc\	-chi-	-a-	por-	ple-	-cel-
!	!	!	!	!	!	!	!	!	!	!	!	!	!	!	!	!	!	!	!	!	!	!	!	!LO:TX:t=P:problem=kreska pseudotaktowa	!	!	!	!	!	!	!	!	!	!	!
.	.	.	.	.	.	.	.	.	.	.	.	.	.	.	.	.	.	.	.	.	.	.	.	2c/	-ve	-ri-	es	-go	Mun-	.	.	.	.	.	.
*	*	*	*	*	*	*	*	*	*	*	*	*	*	*	*	*	*	*	*	*	*	*	*	*2\right	*	*	*	*	*	*	*	*	*	*	*
.	.	.	.	.	.	.	.	.	.	.	.	.	.	.	.	.	.	.	.	.	.	.	.	2e\	Hie-	-a	C(a)e-	DE-	-di	2cc\	-a,	-ta,	-ta,	-na,	-lus,
!	!	!	!	!	!	!	!	!	!	!	!	!	!	!	!	!	!	!	!	!	!	!	!	!LO:TX:t=P:problem=kreska pseudotaktowa	!	!	!	!	!	!	!	!	!	!	!
.	.	.	.	.	.	.	.	.	.	.	.	.	.	.	.	.	.	.	.	.	.	.	.	2f\	-ra-	Be-	-li	-o	O-	1dd\	C(a)e-	do-	ex	Tu	per
=3-	=3-	=3-	=3-	=3-	=3-	=3-	=3-	=3-	=3-	=3-	=3-	=3-	=3-	=3-	=3-	=3-	=3-	=3-	=3-	=3-	=3-	=3-	=3-	=3-	=3-	=3-	=3-	=3-	=3-	=3-	=3-	=3-	=3-	=3-	=3-
!LO:TX:t=P:problem=kreska pseudotaktowa	!	!	!	!	!	!	!	!	!	!	!	!	!	!	!	!	!	!	!	!	!	!	!	!	!	!	!	!	!	!	!	!	!	!	!
00r	.	.	.	.	.	00r	.	.	.	.	.	00r	.	.	.	.	.	0r	.	.	.	.	.	4g\	-chi-	-a-	por-	ple-	-cel-	.	.	.	.	.	.
.	.	.	.	.	.	.	.	.	.	.	.	.	.	.	.	.	.	.	.	.	.	.	.	4f\	.	.	.	.	.	.	.	.	.	.	.
.	.	.	.	.	.	.	.	.	.	.	.	.	.	.	.	.	.	.	.	.	.	.	.	4e\	.	.	.	.	.	1ee\	-les-	-ce	Te	Lu-	Te
.	.	.	.	.	.	.	.	.	.	.	.	.	.	.	.	.	.	.	.	.	.	.	.	4d\	.	.	.	.	.	.	.	.	.	.	.
.	.	.	.	.	.	.	.	.	.	.	.	.	.	.	.	.	.	.	.	.	.	.	.	2c,/	-a	-ta	-ta,	-na	-lus,	.	.	.	.	.	.
.	.	.	.	.	.	.	.	.	.	.	.	.	.	.	.	.	.	.	.	.	.	.	.	2.f\	C(a)e-	do-	ex	Tu	per	1ff\	-tis	nos	lux	-na	vi-
=4-	=4-	=4-	=4-	=4-	=4-	=4-	=4-	=4-	=4-	=4-	=4-	=4-	=4-	=4-	=4-	=4-	=4-	=4-	=4-	=4-	=4-	=4-	=4-	=4-	=4-	=4-	=4-	=4-	=4-	=4-	=4-	=4-	=4-	=4-	=4-
.	.	.	.	.	.	.	.	.	.	.	.	.	.	.	.	.	.	2F/	1. A-	2 Ma-	3. Tu	4. Vir-	5. Tu	.	.	.	.	.	.	.	.	.	.	.	.
.	.	.	.	.	.	.	.	.	.	.	.	.	.	.	.	.	.	.	.	.	.	.	.	4g\	.	.	.	.	.	.	.	.	.	.	.
!	!	!	!	!	!	!	!	!	!	!	!	!	!	!	!	!	!	!LO:TX:t=P:problem=kreska pseudotaktowa	!	!	!	!	!	!	!	!	!	!	!	!	!	!	!	!	!
.	.	.	.	.	.	.	.	.	.	.	.	.	.	.	.	.	.	2F/	-ve	-ri-	es	-go	mun-	4a\	.	.	.	.	.	1cc\	et	man-	est	se-	-vit
!	!	!	!	!	!	!	!	!	!	!	!	!	!	!	!	!	!	!	!	!	!	!	!	!LO:TX:t=P:problem=kreska pseudotaktowa	!	!	!	!	!	!	!	!	!	!	!
.	.	.	.	.	.	.	.	.	.	.	.	.	.	.	.	.	.	.	.	.	.	.	.	4g\	.	.	.	.	.	.	.	.	.	.	.
.	.	.	.	.	.	.	.	.	.	.	.	.	.	.	.	.	.	2A/	Hie-	-a	C(a)e-	DE-	-di	1f\	-les-	-ce	Te	Lu-	Te	.	.	.	.	.	.
!	!	!	!	!	!	!	!	!	!	!	!	!	!	!	!	!	!	!	!	!	!	!	!	!	!	!	!	!	!	!LO:TX:t=P:problem=kreska pseudotaktowa	!	!	!	!	!
.	.	.	.	.	.	.	.	.	.	.	.	.	.	.	.	.	.	2B-\	-rar-	Be-	-li	-o	O-	.	.	.	.	.	.	2dd\	pi-	-da-	or-	-re-	Tel-
=5-	=5-	=5-	=5-	=5-	=5-	=5-	=5-	=5-	=5-	=5-	=5-	=5-	=5-	=5-	=5-	=5-	=5-	=5-	=5-	=5-	=5-	=5-	=5-	=5-	=5-	=5-	=5-	=5-	=5-	=5-	=5-	=5-	=5-	=5-	=5-
!LO:TX:t=P:problem=A wielkie, na początku pićiolinii przed kluczem	!	!	!	!	!	!	!	!	!	!	!	!	!	!	!	!	!	!LO:TX:t=P:problem=kreska pseudotaktowa	!	!	!	!	!	!	!	!	!	!	!	!	!	!	!	!	!
2C/	A-	2 Ma-	3 Tu	4. Vir-	5. Tu	2C/	1. A-	2. Ma-	3. Tu	4. Vir-	5. Tu	00r	.	.	.	.	.	1c\	-chi-	-a-	por-	ple-	-cel-	2e\	-tis	nos	lux	-na	.	4g\	.	.	.	.	.
.	.	.	.	.	.	.	.	.	.	.	.	.	.	.	.	.	.	.	.	.	.	.	.	.	.	.	.	.	.	4a\	.	.	.	.	.
!	!	!	!	!	!	!LO:TX:t=P:problem=kreska pseudotaktowa	!	!	!	!	!	!	!	!	!	!	!	!	!	!	!	!	!	!	!	!	!	!	!	!	!	!	!	!	!
2C/	-ve	-ri-	es	-go	mun-	2C/	-ve	-ri-	es	-go	mun-	.	.	.	.	.	.	.	.	.	.	.	.	1g\	et	man-	est	se-	vi-	4b-\	.	.	.	.	.
.	.	.	.	.	.	.	.	.	.	.	.	.	.	.	.	.	.	.	.	.	.	.	.	.	.	.	.	.	.	4g\	.	.	.	.	.
*2\right	*	*	*	*	*	*2\right	*	*	*	*	*	*	*	*	*	*	*	*	*	*	*	*	*	*	*	*	*	*	*	*	*	*	*	*	*
2E\	Hie-	-a	c(a)e-	De-	.	2E\	Hie-	-a	c(a)e-	DE-	-di	.	.	.	.	.	.	2c,\	-a	-ta,	-ta,	-na,	-lus,	.	.	.	.	.	.	4cc\	.	.	.	.	.
.	.	.	.	.	.	.	.	.	.	.	.	.	.	.	.	.	.	.	.	.	.	.	.	.	.	.	.	.	.	4b-\	.	.	.	.	.
!LO:TX:t=P:problem=kreska pseudotaktowa	!	!	!	!	!	!	!	!	!	!	!	!	!	!	!	!	!	!	!	!	!	!	!	!	!	!	!	!	!	!	!	!	!	!	!
2F\	-rar-	be-	-li	-o	-di	2F\	-rar-	Be-	-li	-o	O-	.	.	.	.	.	.	1d\	Ca(e)-	do-	ex	Tu	Per	4f\	.	.	.	.	-vit	2a\	.	.	.	.	.
.	.	.	.	.	.	.	.	.	.	.	.	.	.	.	.	.	.	.	.	.	.	.	.	4e\	.	.	.	.	.	.	.	.	.	.	.
=6-	=6-	=6-	=6-	=6-	=6-	=6-	=6-	=6-	=6-	=6-	=6-	=6-	=6-	=6-	=6-	=6-	=6-	=6-	=6-	=6-	=6-	=6-	=6-	=6-	=6-	=6-	=6-	=6-	=6-	=6-	=6-	=6-	=6-	=6-	=6-
!	!	!	!	!	!	!	!	!	!	!	!	!	!	!	!	!	!	!	!	!	!	!	!	!	!	!	!	!	!	!LO:TX:t=P:problem=kreska pseudotaktowa	!	!	!	!	!
!	!	!	!	!	!	!	!	!	!	!	!	!	!	!	!	!	!	!	!	!	!	!	!	!	!	!	!	!	!	!LO:N:acc=#	!	!	!	!	!
4G\	-chi-	-a-	por-	ple-	o-	4G\	-chi-	-a-	Por-	ple-	-cel-	.	.	.	.	.	.	.	.	.	.	.	.	2d\	.	.	or-	-re-	Tel-	1bn\	.	.	.	.	.
4F\	.	.	.	.	.	4F\	.	.	.	.	.	.	.	.	.	.	.	.	.	.	.	.	.	.	.	.	.	.	.	.	.	.	.	.	.
4E\	.	.	.	.	-cel-	4E\	.	.	.	.	.	.	.	.	.	.	.	1e\	-les-	-ce	Te	Lu-	Te	1g\	pi-	.	.	.	.	.	.	.	.	.	.
!	!	!	!	!	!	!LO:TX:t=P:problem=kreska pseudotaktowa	!	!	!	!	!	!	!	!	!	!	!	!	!	!	!	!	!	!	!	!	!	!	!	!	!	!	!	!	!
4D\	.	.	.	.	.	4D\	.	.	.	.	.	.	.	.	.	.	.	.	.	.	.	.	.	.	.	.	.	.	.	.	.	.	.	.	.
2C,/	-a	-ta	-ta	-na	-lus	2C,/	-a	-ta	-ta;	-na,	-l(us):	.	.	.	.	.	.	.	.	.	.	.	.	.	.	.	.	.	.	2cc,\	-a,	-ta,	-ta,	-na,	-lus,
!	!	!	!	!	!	!	!	!	!	!	!	!	!	!	!	!	!	!	!	!	!	!	!	!	!	!	!	!	!	!LO:TX:t=P:problem=kreska pseudotaktowa	!	!	!	!	!
1F\	C(ae)-	do-	ex	Tu	per	1F\	C(ae)-	do-	ex	Tu	Per	.	.	.	.	.	.	1f\	-tis	nos	lux	-na	vi-	2a\	.	-da-	.	.	.	2a\	c(a)e-	do-	ad	per	per
=7-	=7-	=7-	=7-	=7-	=7-	=7-	=7-	=7-	=7-	=7-	=7-	=7-	=7-	=7-	=7-	=7-	=7-	=7-	=7-	=7-	=7-	=7-	=7-	=7-	=7-	=7-	=7-	=7-	=7-	=7-	=7-	=7-	=7-	=7-	=7-
!	!	!	!	!	!	!	!	!	!	!	!	!LO:TX:t=P:problem=kreska pseudotaktowa	!	!	!	!	!	!	!	!	!	!	!	!	!	!	!	!	!	!	!	!	!	!	!
.	.	.	.	.	.	.	.	.	.	.	.	1r	.	.	.	.	.	.	.	.	.	.	.	1g\	-a	-ta	-ta,	-na,	.	2b-\	-les-	-ce	c(a)e-	Vo-	Te
!LO:TX:t=P:problem=kreska pseudotaktowa	!	!	!	!	!	!LO:TX:t=P:problem=kreska pseudotaktowa	!	!	!	!	!	!	!	!	!	!	!	!	!	!	!	!	!	!	!	!	!	!	!	!LO:TX:t=P:problem=kreska pseudotaktowa	!	!	!	!	!
2E\	.	-ce	.	lu-	.	2E\	-les-	-ce	Te	Lu-	Te	.	.	.	.	.	.	1c\	et	man-	est	se-	-vit	.	.	.	.	.	.	2g/	-tis	nos	-lum	-ta	vi-
!	!	!	!	!	!	!	!	!	!	!	!	!	!	!	!	!	!	!	!	!	!	!	!	!LO:TX:t=P:problem=kreska pseudotaktowa	!	!	!	!	!	!	!	!	!	!	!
1F\	-les	nos	Te	-na	Te	1F\	-tis	nos	lux	-na	vi-	2F/	1. A-	2. Ma-	3. Tu	4. Vir-	5. Tu	.	.	.	.	.	.	1f\	.	.	.	.	-lus,	4a\	et	man:-	dis-	mil-	.
.	.	.	.	.	.	.	.	.	.	.	.	.	.	.	.	.	.	.	.	.	.	.	.	.	.	.	.	.	.	4b-\	.	.	.	.	.
.	.	.	.	.	.	.	.	.	.	.	.	2F/	-ve	-ri-	es	-go	mun-	1A\	pi-	-da-	or-	-re-	Tel-	.	.	.	.	.	.	4a\	.	.	.	.	.
!	!	!	!	!	!	!	!	!	!	!	!	!	!	!	!	!	!	!	!	!	!	!	!	!	!	!	!	!	!	!LO:TX:t=P:problem=kreska pseudotaktowa	!	!	!	!	!
.	.	.	.	.	.	.	.	.	.	.	.	.	.	.	.	.	.	.	.	.	.	.	.	.	.	.	.	.	.	4g\	.	.	.	.	.
!	!	!	!	!	!	!	!	!	!	!	!	!	!	!	!	!	!	!	!	!	!	!	!	!LO:LB:g=original	!	!	!	!	!	!LO:LB:g=original	!	!	!	!	!
=8-	=8-	=8-	=8-	=8-	=8-	=8-	=8-	=8-	=8-	=8-	=8-	=8-	=8-	=8-	=8-	=8-	=8-	=8-	=8-	=8-	=8-	=8-	=8-	=8-	=8-	=8-	=8-	=8-	=8-	=8-	=8-	=8-	=8-	=8-	=8-
!	!	!	!	!	!	!	!	!	!	!	!	!	!	!	!	!	!	!	!	!	!	!	!	!LO:TX:t=P:problem=pięć skreślonych nut	!	!	!	!	!	!	!	!	!	!	!
2D\	tis	man-	lux	se-	vi-	2D/	et	man-	eſt	se-	-vit	2A/	Hie-	-a	C(a)e-	DE-	-di	.	.	.	.	.	.	00r	.	.	.	.	.	2f/	.	.	.	-le-	-vit
*	*	*	*	*	*	*	*	*	*	*	*	*2\right	*	*	*	*	*	*	*	*	*	*	*	*	*	*	*	*	*	*	*	*	*	*	*
!	!	!	!	!	!	!	!	!	!	!	!	!LO:N:acc=#	!	!	!	!	!	!	!	!	!	!	!	!	!	!	!	!	!	!	!	!	!	!	!
!	!	!	!	!	!	!	!	!	!	!	!	!	!	!	!	!	!	!LO:N:acc=#	!	!	!	!	!	!	!	!	!	!	!	!	!	!	!	!	!
4G\	et	-da-	eſt	-re-	-vit	4G\	pi-	-da-	or-	-re-	Tel-	2Bn\	-rer-	Be-	-li	-o	O-	2Bn\	.	.	.	.	.	.	.	.	.	.	.	1g\	pi-	-da-	-tor-	.	.
!LO:TX:t=P:problem=kreska pseudotaktowa	!	!	!	!	!	!LO:TX:t=P:problem=kreska pseudotaktowa	!	!	!	!	!	!	!	!	!	!	!	!	!	!	!	!	!	!	!	!	!	!	!	!	!	!	!	!	!
4F\	.	.	.	.	.	4F\	.	.	.	.	.	.	.	.	.	.	.	.	.	.	.	.	.	.	.	.	.	.	.	.	.	.	.	.	.
!	!	!	!	!	!	!	!	!	!	!	!	!	!	!	!	!	!	!LO:TX:t=P:problem=kreska pseudotaktowa	!	!	!	!	!	!	!	!	!	!	!	!	!	!	!	!	!
4E/	.	.	.	.	tel-	4E\	.	.	.	.	.	1c\	-chi-	-a-	por-	ple-	-cel-	1c\	-a,	-ta	-ta,	-na,	-lus,	.	.	.	.	.	.	.	.	.	.	.	.
4C/	.	.	or-	.	.	4C/	.	.	.	.	.	.	.	.	.	.	.	.	.	.	.	.	.	.	.	.	.	.	.	.	.	.	.	.	.
2.F\	.	.	.	.	.	2.F\	.	.	.	.	.	.	.	.	.	.	.	.	.	.	.	.	.	.	.	.	.	.	.	2a\	.	.	.	.	Tel-
=9-	=9-	=9-	=9-	=9-	=9-	=9-	=9-	=9-	=9-	=9-	=9-	=9-	=9-	=9-	=9-	=9-	=9-	=9-	=9-	=9-	=9-	=9-	=9-	=9-	=9-	=9-	=9-	=9-	=9-	=9-	=9-	=9-	=9-	=9-	=9-
!	!	!	!	!	!	!	!	!	!	!	!	!LO:TX:t=P:problem=kreska pseudotaktowa	!	!	!	!	!	!	!	!	!	!	!	!	!	!	!	!	!	!LO:TX:t=P:problem=kreska pseudotaktowa	!	!	!	!	!
.	.	.	.	.	.	.	.	.	.	.	.	1c\	-a	-ta	-ta,	-na,	-lus,	00r	.	.	.	.	.	.	.	.	.	.	.	1f/	-a	-ta	-ta	-ra,	-lus,
4G\	.	.	.	.	.	4G\	.	.	.	.	.	.	.	.	.	.	.	.	.	.	.	.	.	.	.	.	.	.	.	.	.	.	.	.	.
!	!	!	!	!	!	!LO:TX:t=P:problem=kreska pseudotaktowa	!	!	!	!	!	!	!	!	!	!	!	!	!	!	!	!	!	!	!	!	!	!	!	!	!	!	!	!	!
2A\	.	.	.	.	.	2A\	.	.	.	.	.	.	.	.	.	.	.	.	.	.	.	.	.	.	.	.	.	.	.	.	.	.	.	.	.
2B-\	.	.	.	.	.	2B-\	.	.	.	.	.	1d\	C(a)e-	No-	ex	Tu	Per	.	.	.	.	.	.	.	.	.	.	.	.	1b-\	De-	No-	Cor-	Te	In
!LO:TX:t=P:problem=kreska pseudotaktowa	!	!	!	!	!	!	!	!	!	!	!	!	!	!	!	!	!	!	!	!	!	!	!	!	!	!	!	!	!	!	!	!	!	!	!
2G\	.	.	.	.	.	2G\	.	.	.	.	.	.	.	.	.	.	.	.	.	.	.	.	.	.	.	.	.	.	.	.	.	.	.	.	.
!LO:LB:g=original	!	!	!	!	!	!	!	!	!	!	!	!	!	!	!	!	!	!	!	!	!	!	!	!	!	!	!	!	!	!	!	!	!	!	!
=10-	=10-	=10-	=10-	=10-	=10-	=10-	=10-	=10-	=10-	=10-	=10-	=10-	=10-	=10-	=10-	=10-	=10-	=10-	=10-	=10-	=10-	=10-	=10-	=10-	=10-	=10-	=10-	=10-	=10-	=10-	=10-	=10-	=10-	=10-	=10-
!	!	!	!	!	!	!	!	!	!	!	!	!	!	!	!	!	!	!	!	!	!	!	!	!LO:TX:t=P:problem=kreska pseudotaktowa	!	!	!	!	!	!	!	!	!	!	!
2c\	pi-	.	.	.	.	2c\	.	.	.	.	.	1e\	-les-	-ve	Te	lu-	.	.	.	.	.	.	.	1r	.	.	.	.	.	1g\	-i	-v(a)e	-da	nos-	Te
2C/	.	.	.	.	.	2C/	.	.	.	.	.	.	.	.	.	.	.	.	.	.	.	.	.	.	.	.	.	.	.	.	.	.	.	.	.
!LO:TX:t=P:problem=kreska pseudotaktowa	!	!	!	!	!	!	!	!	!	!	!	!	!	!	!	!	!	!	!	!	!	!	!	!	!	!	!	!	!	!LO:TX:t=P:problem=kreska pseudotaktowa	!	!	!	!	!
1F\	-a.	-ta	-ta	-na	-lus	1F\	-a	-ta	-ta,	-na,	-lus,	2f,\	-tis	nos	.	-na	Te	.	.	.	.	.	.	1f\	1. De-	2. No-	3. ad	4. per	5. In	1a\	Mo-	le-	nos-	-tra	est
.	.	.	.	.	.	.	.	.	.	.	.	2c\	et	.	lux	se-	vi-	.	.	.	.	.	.	.	.	.	.	.	.	.	.	.	.	.	.
!	!	!	!	!	!	!LO:LB:g=original	!	!	!	!	!	!	!	!	!	!	!	!	!	!	!	!	!	!	!	!	!	!	!	!	!	!	!	!	!
=11-	=11-	=11-	=11-	=11-	=11-	=11-	=11-	=11-	=11-	=11-	=11-	=11-	=11-	=11-	=11-	=11-	=11-	=11-	=11-	=11-	=11-	=11-	=11-	=11-	=11-	=11-	=11-	=11-	=11-	=11-	=11-	=11-	=11-	=11-	=11-
!LO:TX:t=P:problem=kreska pseudotaktowa	!	!	!	!	!	!	!	!	!	!	!	!	!	!	!	!	!	!	!	!	!	!	!	!	!	!	!	!	!	!	!	!	!	!	!
!LO:TX:a:t=2	!	!	!	!	!	!	!	!	!	!	!	!	!	!	!	!	!	!	!	!	!	!	!	!	!	!	!	!	!	!	!	!	!	!	!
0r	.	.	.	.	.	0r	.	.	.	.	.	4d\	pi-	man-	est	-re-	-vit	1B-\	De-	No-	ad	Per	in	2d\	-i	.	c(a)e-	.	Te	2b-\	-nar-	-gis	-tra	Ca-	te-
.	.	.	.	.	.	.	.	.	.	.	.	4c\	.	.	.	.	.	.	.	.	.	.	.	.	.	.	.	.	.	.	.	.	.	.	.
.	.	.	.	.	.	.	.	.	.	.	.	4B-\	.	.	.	.	.	.	.	.	.	.	.	1d\	Mo-	-va	.	Vo-	est	1b-\	-chi-	gra-	por-	-m(a)e-	-nel-
!	!	!	!	!	!	!	!	!	!	!	!	!LO:TX:t=P:problem=kreska pseudotaktowa	!	!	!	!	!	!	!	!	!	!	!	!	!	!	!	!	!	!	!	!	!	!	!
.	.	.	.	.	.	.	.	.	.	.	.	4A\	.	.	.	.	.	.	.	.	.	.	.	.	.	.	.	.	.	.	.	.	.	.	.
!	!	!	!	!	!	!	!	!	!	!	!	!	!	!	!	!	!	!LO:TX:t=P:problem=kreska pseudotaktowa	!	!	!	!	!	!	!	!	!	!	!	!	!	!	!	!	!
.	.	.	.	.	.	.	.	.	.	.	.	1G/	.	-da-	or-	.	Tel-	1G/	-i	-u(a)e	c(a)e-	vo-	Te	.	.	.	.	.	.	.	.	.	.	.	.
!	!	!	!	!	!	!	!	!	!	!	!	!	!	!	!	!	!	!	!	!	!	!	!	!LO:TX:t=P:problem=kreska pseudotaktowa	!	!	!	!	!	!	!	!	!	!	!
.	.	.	.	.	.	.	.	.	.	.	.	.	.	.	.	.	.	.	.	.	.	.	.	2e\	-nar-	le-	-lum	-ta	.	2g/	.	.	.	.	.
=12-	=12-	=12-	=12-	=12-	=12-	=12-	=12-	=12-	=12-	=12-	=12-	=12-	=12-	=12-	=12-	=12-	=12-	=12-	=12-	=12-	=12-	=12-	=12-	=12-	=12-	=12-	=12-	=12-	=12-	=12-	=12-	=12-	=12-	=12-	=12-
1F\	De-	No-	ad	per	in	1F\	De-	No-	ad	Per	in	1A\,	-a	-ta	-ta;	-na	-l(us),	1A\	Mo-	le-	-lum	-ta	eſt	2f\	-chi-	-gis	dis-	mil-	te-	2f,/	-a,	-ta,	-ta;	-na	-lus,
.	.	.	.	.	.	.	.	.	.	.	.	.	.	.	.	.	.	.	.	.	.	.	.	1f\	.	gra-	-tor-	-le-	-nel-	2cc\	Mo-	no-	ad	Nos-	in
2D\	-i	-v(a)e	c(a)e-	vo-	Te	2D/	-i	-v(a)e	c(a)e-	vo-	Te	2B-\	De-	No-	ad	Per	in	1B-\	-nar-	-gis	diſ-	mil-	te-	.	.	.	.	.	.	2dd\	-nar-	-u(a)e	c(a)e-	.	Te
!LO:TX:t=P:problem=kreska pseudotaktowa	!	!	!	!	!	!	!	!	!	!	!	!LO:TX:t=P:problem=kreska pseudotaktowa	!	!	!	!	!	!	!	!	!	!	!	!	!	!	!	!	!	!LO:TX:t=P:problem=kreska pseudotaktowa	!	!	!	!	!
2E\	Mo-	.	-lum	-ta	eſt	2E\	Mo-	le-	-lum	-ta	eſt	2G/	-i	-va(e)	C(a)e-	Vo-	Te	.	.	.	.	.	.	4e\	.	.	.	.	.	2g/	-chi-	le-	-lum	-tra	eſt
!	!	!	!	!	!	!	!	!	!	!	!	!	!	!	!	!	!	!	!	!	!	!	!	!LO:TX:t=P:problem=kreska pseudotaktowa	!	!	!	!	!	!	!	!	!	!	!
.	.	.	.	.	.	.	.	.	.	.	.	.	.	.	.	.	.	.	.	.	.	.	.	4d\	.	.	.	.	.	.	.	.	.	.	.
=13-	=13-	=13-	=13-	=13-	=13-	=13-	=13-	=13-	=13-	=13-	=13-	=13-	=13-	=13-	=13-	=13-	=13-	=13-	=13-	=13-	=13-	=13-	=13-	=13-	=13-	=13-	=13-	=13-	=13-	=13-	=13-	=13-	=13-	=13-	=13-
2F\	-nar-	le-	.	.	te-	2F\	-nar-	-gis	diſ-	mi-	te-	2c\	Mo-	le-	-lum	-ta	eſt	1A\	-chi-	gra-	-tor-	-le-	-nel-	2c/	-a	-ta	-ta,	-na	-lus,	4a\	.	-gis	por-	Ca-	te-
.	.	.	.	.	.	.	.	.	.	.	.	.	.	.	.	.	.	.	.	.	.	.	.	.	.	.	.	.	.	4b-\	.	.	.	.	.
1F\	.	.	dis-	mil-	-nel-	1F\	-chi-	gra-	-tor-	-le-	-nel-	2A/	-nar-	-gis,	diſ-	mil-	te-	.	.	.	.	.	.	4c/	/De-	/no-	ad	per	in	4cc\	.	.	.	.	-nel-
!	!	!	!	!	!	!	!	!	!	!	!	!	!	!	!	!	!	!	!	!	!	!	!	!LO:TX:t=P:problem=kreska pseudotaktowa	!	!	!	!	!	!	!	!	!	!	!
.	.	.	.	.	.	.	.	.	.	.	.	.	.	.	.	.	.	.	.	.	.	.	.	4c/	-i	-va	c(a)e-	.	Te	4a\	.	.	.	-m(a)e-	.
!	!	!	!	!	!	!	!	!	!	!	!	!	!	!	!	!	!	!LO:LB:g=original	!	!	!	!	!	!	!	!	!	!	!	!	!	!	!	!	!
!LO:TX:t=P:problem=kreska pseudotaktowa	!	!	!	!	!	!	!	!	!	!	!	!	!	!	!	!	!	!	!	!	!	!	!	!	!	!	!	!	!	!LO:N:acc=#	!	!	!	!	!
.	.	.	.	.	.	.	.	.	.	.	.	1G/	-chi-	gra-	-tor-	-le-	-nel-	1G/	.	.	.	.	.	2d\	Mo-	le-	-lum	Vo-	eſt	2bn\	.	.	.	.	.
2E\	.	-gis	-tor-	-le-	.	2E\	.	.	.	.	.	.	.	.	.	.	.	.	.	.	.	.	.	2e\	.	.	diſ-	-ta	te-	1cc\	.	gra-	.	.	.
=14-	=14-	=14-	=14-	=14-	=14-	=14-	=14-	=14-	=14-	=14-	=14-	=14-	=14-	=14-	=14-	=14-	=14-	=14-	=14-	=14-	=14-	=14-	=14-	=14-	=14-	=14-	=14-	=14-	=14-	=14-	=14-	=14-	=14-	=14-	=14-
!	!	!	!	!	!	!	!	!	!	!	!	!LO:TX:t=P:problem=kreska pseudotaktowa	!	!	!	!	!	!LO:TX:t=P:problem=kreska pseudotaktowa	!	!	!	!	!	!	!	!	!	!	!	!	!	!	!	!	!
1D\	-chi	gra-	.	.	.	1D\	.	.	.	.	.	1F/	-a	-ta	-ta	-na	-l(us).	1F/	-a	-ta,	-ta,	-na	-lus	2f\	-nar-	-gis	-tor-	mil-	-nel-	.	.	.	.	.	.
!	!	!	!	!	!	!	!	!	!	!	!	!	!	!	!	!	!	!	!	!	!	!	!	!LO:TX:t=P:problem=kreska pseudotaktowa	!	!	!	!	!	!LO:N:acc=#	!	!	!	!	!
.	.	.	.	.	.	.	.	.	.	.	.	.	.	.	.	.	.	.	.	.	.	.	.	2d\	.	.	.	-le-	.	2bn\	-a	.	.	.	.
!	!	!	!	!	!	!	!	!	!	!	!	!LO:LB:g=original	!	!	!	!	!	!	!	!	!	!	!	!	!	!	!	!	!	!	!	!	!	!	!
!LO:TX:t=P:problem=kreska pseudotaktowa	!	!	!	!	!	!LO:TX:t=P:problem=kreska pseudotaktowa	!	!	!	!	!	!	!	!	!	!	!	!	!	!	!	!	!	!	!	!	!	!	!	!LO:TX:t=P:problem=kreska pseudotaktowa	!	!	!	!	!
1C/	-a	-ta	-ta	-na	-lus	1C/	-a	-ta	-ta,	-na,	-lus	2c\	1. res-	2. fac	3 cor-	4 Te	5. Con-	1E/	res-	fac	Cor-	Te	Con-	1g\	-chi-	gra-	.	.	.	1cc\	.	-ta	-ta	-na	-lus
.	.	.	.	.	.	.	.	.	.	.	.	2c\	-pi-	.	-da	nos-	-cep-	.	.	.	.	.	.	.	.	.	.	.	.	.	.	.	.	.	.
=15-	=15-	=15-	=15-	=15-	=15-	=15-	=15-	=15-	=15-	=15-	=15-	=15-	=15-	=15-	=15-	=15-	=15-	=15-	=15-	=15-	=15-	=15-	=15-	=15-	=15-	=15-	=15-	=15-	=15-	=15-	=15-	=15-	=15-	=15-	=15-
!	!	!	!	!	!	!	!	!	!	!	!	!	!	!	!	!	!	!	!	!	!	!	!	!LO:TX:t=P:problem=kreska pseudotaktowa	!	!	!	!	!	!LO:TX:t=P:problem=kreska pseudotaktowa	!	!	!	!	!
2F\	re-	fax	cor-	Te	con-	2F\	re-	fac	cor-	Te	con-	2A/	-ce	ſer-	nos-	-tra	-tus	1F/	-pi-	.	-da	noſ-	-cep-	1f\	-a/	-ta/	-ta	-na	-lus	1r	.	.	.	.	.
!	!	!	!	!	!	!	!	!	!	!	!	!LO:TX:t=P:problem=kreska pseudotaktowa	!	!	!	!	!	!	!	!	!	!	!	!	!	!	!	!	!	!	!	!	!	!	!
2F\	-spi-	ser-	-da	nos-	-ce-	2F\	-spi-	ſer-	-da	nos-	-cep-	2F/	nos	-va-	-tra	Ca-	a-	.	.	.	.	.	.	.	.	.	.	.	.	.	.	.	.	.	.
!	!	!	!	!	!	!	!	!	!	!	!	!	!	!	!	!	!	!	!	!	!	!	!	!	!	!	!	!	!	!LO:TX:b:i:t=Vertat	!	!	!	!	!
!	!	!	!	!	!	!	!	!	!	!	!	!	!	!	!	!	!	!	!	!	!	!	!	!	!	!	!	!	!	!LO:PB:g=original	!	!	!	!	!
!	!	!	!	!	!	!	!	!	!	!	!	!	!	!	!	!	!	!LO:TX:t=P:problem=kreska pseudotaktowa	!	!	!	!	!	!	!	!	!	!	!	!	!	!	!	!	!
2E\	-ce	-va-	nos-	-tra	-ptus	2E\	-ce	-va-	noſ-	.	-tus	4G/	Di-	-e	por-	-m(a)e-	-gnel-	1G/	-ce	ſer-	nos-	-tra	-tus	1r	.	.	.	.	.	2cc\	1. re-	2. fac	3. cor-	4. Te	5. Con-
.	.	.	.	.	.	.	.	.	.	.	.	4A/	.	.	.	.	.	.	.	.	.	.	.	.	.	.	.	.	.	.	.	.	.	.	.
!LO:TX:t=P:problem=kreska pseudotaktowa	!	!	!	!	!	!LO:TX:t=P:problem=kreska pseudotaktowa	!	!	!	!	!	!	!	!	!	!	!	!	!	!	!	!	!	!	!	!	!	!	!	!	!	!	!	!	!
2C/	nos	-re	-tra	Cam-	a-	2C/	nos	-re	-tra	-tra	a-	4B-\	.	.	.	.	.	.	.	.	.	.	.	.	.	.	.	.	.	2cc\	-spi-	ſer-	-da	nos-	-cep-
.	.	.	.	.	.	.	.	.	.	.	.	4G/	.	ra-	.	.	.	.	.	.	.	.	.	.	.	.	.	.	.	.	.	.	.	.	.
=16-	=16-	=16-	=16-	=16-	=16-	=16-	=16-	=16-	=16-	=16-	=16-	=16-	=16-	=16-	=16-	=16-	=16-	=16-	=16-	=16-	=16-	=16-	=16-	=16-	=16-	=16-	=16-	=16-	=16-	=16-	=16-	=16-	=16-	=16-	=16-
4F\	.	.	.	.	-gnel-	4F\	Di-	ra-	por-	Ca-	-gnel-	4A\	.	.	.	.	.	1A\	nos	-va-	-tra	Ca-	A-	2f\	re-	fac	Cor-	Te	con-	2a\	-ce	-va-	nos-	-tra	.
4FF/	.	.	.	-(a)e-	.	4FF/	.	.	.	-m(a)e-	.	4B-\	.	.	.	.	.	.	.	.	.	.	.	.	.	.	.	.	.	.	.	.	.	.	.
!	!	!	!	!	!	!	!	!	!	!	!	!	!	!	!	!	!	!	!	!	!	!	!	!LO:TX:t=P:problem=kreska pseudotaktowa	!	!	!	!	!	!	!	!	!	!	!
4AA/	Di-	ra-	.	.	.	4AA/	.	.	.	.	.	4c\	.	.	.	.	.	.	.	.	.	.	.	2f\	-spi-	ſer-	-da	noſ-	-cep-	2f/	nos	-re	-tra	Ca-	-tus
!	!	!	!	!	!	!LO:TX:t=P:problem=kreska pseudotaktowa	!	!	!	!	!	!LO:TX:t=P:problem=kreska pseudotaktowa	!	!	!	!	!	!	!	!	!	!	!	!	!	!	!	!	!	!	!	!	!	!	!
4BB-/	.	.	por-	.	.	4BB-/	.	.	.	.	.	4A\	.	.	.	.	.	.	.	.	.	.	.	.	.	.	.	.	.	.	.	.	.	.	.
4C/	.	.	.	.	.	4C/	.	.	.	.	.	1G/	.	.	.	.	.	1G/	Di-	-re	por-	-m(a)e-	-gnel-	2e\	-ce	-va-	noſ-	-tra	-tus	2.cc\	Di-	ra-	por-	-m(a)e-	A-
4D/	.	.	.	.	.	4D/	.	.	.	.	.	.	.	.	.	.	.	.	.	.	.	.	.	.	.	.	.	.	.	.	.	.	.	.	.
4E/	.	.	.	.	.	4E\	.	.	.	.	.	.	.	.	.	.	.	.	.	.	.	.	.	2c/	nos	-re	-tra	Ca-	A-	.	.	.	.	.	.
!LO:TX:t=P:problem=kreska pseudotaktowa	!	!	!	!	!	!LO:TX:t=P:problem=kreska pseudotaktowa	!	!	!	!	!	!	!	!	!	!	!	!	!	!	!	!	!	!	!	!	!	!	!	!	!	!	!	!	!
4C/	.	.	.	.	.	4C/	.	.	.	.	.	.	.	.	.	.	.	.	.	.	.	.	.	.	.	.	.	.	.	4b-\	.	.	.	.	.
=17-	=17-	=17-	=17-	=17-	=17-	=17-	=17-	=17-	=17-	=17-	=17-	=17-	=17-	=17-	=17-	=17-	=17-	=17-	=17-	=17-	=17-	=17-	=17-	=17-	=17-	=17-	=17-	=17-	=17-	=17-	=17-	=17-	=17-	=17-	=17-
4D\	.	.	.	.	.	4D\	.	.	.	.	.	2F,/	-a	-ta	-ta	-na	-lus,	1F/	.	ra-	.	.	.	4f\	.	ra-	por-	-m(a)e-	-gnel-	1a\	.	.	.	.	-gnel-
4E\	.	.	.	.	.	4E\	.	.	.	.	.	.	.	.	.	.	.	.	.	.	.	.	.	4g\	.	.	.	.	.	.	.	.	.	.	.
4F\	.	.	.	.	.	4F\	.	.	.	.	.	4f\	res-	fax	Cor-	Te	Con-	.	.	.	.	.	.	4a\	Di-	.	.	.	.	.	.	.	.	.	.
!	!	!	!	!	!	!	!	!	!	!	!	!LO:TX:t=P:problem=kreska pseudotaktowa	!	!	!	!	!	!	!	!	!	!	!	!LO:TX:t=P:problem=kreska pseudotaktowa	!	!	!	!	!	!	!	!	!	!	!
4D\	.	.	.	.	.	4D\	.	.	.	.	.	4f\	-pi-	.	-da	noſ-	-cep-	.	.	.	.	.	.	4f\	.	.	.	.	.	.	.	.	.	.	.
2E\	.	.	.	.	.	2E\	.	.	.	.	.	2c\	-ce	ſerer-	noſ-	-tra	-t(us)	1E/	.	.	.	.	.	4g\	.	.	.	.	.	2g\	.	.	.	.	.
.	.	.	.	.	.	.	.	.	.	.	.	.	.	.	.	.	.	.	.	.	.	.	.	4f\	.	.	.	.	.	.	.	.	.	.	.
!LO:TX:t=P:problem=kreska pseudotaktowa	!	!	!	!	!	!	!	!	!	!	!	!	!	!	!	!	!	!	!	!	!	!	!	!	!	!	!	!	!	!	!	!	!	!	!
2C/	.	.	.	.	.	2C/	.	.	.	.	.	2c\	nos	-va-	-tra	Ca-	a-	.	.	.	.	.	.	4e\	.	.	.	.	.	1cc\	.	.	.	.	.
.	.	.	.	.	.	.	.	.	.	.	.	.	.	.	.	.	.	.	.	.	.	.	.	4c\	.	.	.	.	.	.	.	.	.	.	.
!LO:LB:g=original	!	!	!	!	!	!	!	!	!	!	!	!	!	!	!	!	!	!	!	!	!	!	!	!	!	!	!	!	!	!	!	!	!	!	!
=18-	=18-	=18-	=18-	=18-	=18-	=18-	=18-	=18-	=18-	=18-	=18-	=18-	=18-	=18-	=18-	=18-	=18-	=18-	=18-	=18-	=18-	=18-	=18-	=18-	=18-	=18-	=18-	=18-	=18-	=18-	=18-	=18-	=18-	=18-	=18-
2G\	.	.	.	.	.	1GG/	.	.	.	.	.	4d\	Di-	-re	por-	-m(a)e-	-gnel-	1D/	.	.	.	.	.	1d\	.	.	.	-na	.	.	.	.	.	.	.
.	.	.	.	.	.	.	.	.	.	.	.	4e\	.	.	.	.	.	.	.	.	.	.	.	.	.	.	.	.	.	.	.	.	.	.	.
!	!	!	!	!	!	!	!	!	!	!	!	!	!	!	!	!	!	!	!	!	!	!	!	!	!	!	!	!	!	!LO:N:acc=#	!	!	!	!	!
2GG/	.	.	.	.	.	.	.	.	.	.	.	4f\	.	.	.	.	.	.	.	.	.	.	.	.	.	.	.	.	.	2bn\	.	.	.	.	.
!	!	!	!	!	!	!	!	!	!	!	!	!LO:TX:t=P:problem=kreska pseudotaktowa	!	!	!	!	!	!	!	!	!	!	!	!	!	!	!	!	!	!	!	!	!	!	!
.	.	.	.	.	.	.	.	.	.	.	.	4d\	.	ra-	.	.	.	.	.	.	.	.	.	.	.	.	.	.	.	.	.	.	.	.	.
!LO:TX:t=P:problem=kreska pseudotaktowa	!	!	!	!	!	!LO:TX:t=P:problem=kreska pseudotaktowa	!	!	!	!	!	!	!	!	!	!	!	!LO:TX:t=P:problem=kreska pseudotaktowa	!	!	!	!	!LO:TX:t=P:problem=kreska pseudotaktowa	!	!	!	!	!	!	!LO:TX:t=P:problem=kreska pseudotaktowa	!	!	!	!	!
1C/	-a.	-ta	-ta	-na	-lus	1C/	-a	-ta	-ta	-na	-lus,	4e\	.	.	.	.	.	1C/	-a	-ta	-ta,	-na,	-lus,	1e\	-a	-ta	-ta,	.	-lus.	1cc\,	-a,	-ta,	-ta;	-na	-lus
.	.	.	.	.	.	.	.	.	.	.	.	4f\	.	.	.	.	.	.	.	.	.	.	.	.	.	.	.	.	.	.	.	.	.	.	.
.	.	.	.	.	.	.	.	.	.	.	.	4g\	.	.	.	.	.	.	.	.	.	.	.	.	.	.	.	.	.	.	.	.	.	.	.
.	.	.	.	.	.	.	.	.	.	.	.	4e\	.	.	.	.	.	.	.	.	.	.	.	.	.	.	.	.	.	.	.	.	.	.	.
!	!	!	!	!	!	!LO:PB:g=original	!	!	!	!	!	!	!	!	!	!	!	!	!	!	!	!	!	!LO:PB:g=original	!	!	!	!	!	!	!	!	!	!	!
=19-	=19-	=19-	=19-	=19-	=19-	=19-	=19-	=19-	=19-	=19-	=19-	=19-	=19-	=19-	=19-	=19-	=19-	=19-	=19-	=19-	=19-	=19-	=19-	=19-	=19-	=19-	=19-	=19-	=19-	=19-	=19-	=19-	=19-	=19-	=19-
00r	.	.	.	.	.	00r	.	.	.	.	.	2f\	.	.	.	.	.	00r	.	.	.	.	.	00r	.	.	.	.	.	(2f/	ut	Vir-	in	O-	Tu-
.	.	.	.	.	.	.	.	.	.	.	.	2e\	.	.	.	.	.	.	.	.	.	.	.	.	.	.	.	.	.	2g/)	.	.	.	.	-am
.	.	.	.	.	.	.	.	.	.	.	.	2f\	.	.	.	.	.	.	.	.	.	.	.	.	.	.	.	.	.	2a\	e-	-go	mor-	-rat,	o-
!	!	!	!	!	!	!	!	!	!	!	!	!	!	!	!	!	!	!	!	!	!	!	!	!	!	!	!	!	!	!LO:TX:t=P:problem=kreska pseudotaktowa	!	!	!	!	!
.	.	.	.	.	.	.	.	.	.	.	.	2d\	.	.	.	.	.	.	.	.	.	.	.	.	.	.	.	.	.	2f/	-ru-	Prin-	-tis	sit	-pem
=20-	=20-	=20-	=20-	=20-	=20-	=20-	=20-	=20-	=20-	=20-	=20-	=20-	=20-	=20-	=20-	=20-	=20-	=20-	=20-	=20-	=20-	=20-	=20-	=20-	=20-	=20-	=20-	=20-	=20-	=20-	=20-	=20-	=20-	=20-	=20-
!	!	!	!	!	!	!	!	!	!	!	!	!LO:TX:t=P:problem=kreska pseudotaktowa	!	!	!	!	!	!	!	!	!	!	!	!	!	!	!	!	!	!LO:TX:t=P:problem=kreska pseudotaktowa	!	!	!	!	!
.	.	.	.	.	.	.	.	.	.	.	.	00c\	-a	-ta	-ta,	-na	-lus,	.	.	.	.	.	.	.	.	.	.	.	.	1cc\	-a-	-ceps	do-	in	im-
!	!	!	!	!	!	!	!	!	!	!	!	!	!	!	!	!	!	!	!	!	!	!	!	!	!	!	!	!	!	!LO:TX:t=P:problem=kreska pseudotaktowa	!	!	!	!	!
.	.	.	.	.	.	.	.	.	.	.	.	.	.	.	.	.	.	.	.	.	.	.	.	.	.	.	.	.	.	1dd\	.	Vir-	-lo-	Au-	-plo-
=21-	=21-	=21-	=21-	=21-	=21-	=21-	=21-	=21-	=21-	=21-	=21-	=21-	=21-	=21-	=21-	=21-	=21-	=21-	=21-	=21-	=21-	=21-	=21-	=21-	=21-	=21-	=21-	=21-	=21-	=21-	=21-	=21-	=21-	=21-	=21-
!	!	!	!	!	!	!	!	!	!	!	!	!	!	!	!	!	!	!	!	!	!	!	!	!	!	!	!	!	!	!LO:TX:t=P:problem=kreska pseudotaktowa	!	!	!	!	!
!	!	!	!	!	!	!	!	!	!	!	!	!	!	!	!	!	!	!	!	!	!	!	!	!	!	!	!	!	!	!LO:TX:a:t=1	!	!	!	!	!
00r	.	.	.	.	.	00r	.	.	.	.	.	.	.	.	.	.	.	0r	.	.	.	.	.	2c/	1. ut	2 Vir-	3. in	4 o-	5. Tu-	1cc\	-mur	-gi-	-ri-	-ri-	-rat
.	.	.	.	.	.	.	.	.	.	.	.	.	.	.	.	.	.	.	.	.	.	.	.	(2d\	.	.	.	-rat,	-am	.	.	.	.	.	.
.	.	.	.	.	.	.	.	.	.	.	.	.	.	.	.	.	.	.	.	.	.	.	.	2e\)	e-	.	mor-	sit	o-	2.cc\	e-	-num	-bus,	-bus	O-
!	!	!	!	!	!	!	!	!	!	!	!	!	!	!	!	!	!	!	!	!	!	!	!	!LO:TX:t=P:problem=kreska pseudotaktowa	!	!	!	!	!	!	!	!	!	!	!
.	.	.	.	.	.	.	.	.	.	.	.	.	.	.	.	.	.	.	.	.	.	.	.	2c/	-rua-	-go	-tis	in	-pem	.	.	.	.	.	.
!	!	!	!	!	!	!	!	!	!	!	!	!	!	!	!	!	!	!	!	!	!	!	!	!	!	!	!	!	!	!LO:TX:t=P:problem=kreska pseudotaktowa	!	!	!	!	!
.	.	.	.	.	.	.	.	.	.	.	.	.	.	.	.	.	.	.	.	.	.	.	.	.	.	.	.	.	.	4b-\	-ru-	Vir-	Cli-	.	.
!	!	!	!	!	!	!	!	!	!	!	!	!	!	!	!	!	!	!LO:TX:b:t=Vertat	!	!	!	!	!	!	!	!	!	!	!	!	!	!	!	!	!
!	!	!	!	!	!	!	!	!	!	!	!	!LO:LB:g=original	!	!	!	!	!	!LO:PB:g=original	!	!	!	!	!	!	!	!	!	!	!	!	!	!	!	!	!
=22-	=22-	=22-	=22-	=22-	=22-	=22-	=22-	=22-	=22-	=22-	=22-	=22-	=22-	=22-	=22-	=22-	=22-	=22-	=22-	=22-	=22-	=22-	=22-	=22-	=22-	=22-	=22-	=22-	=22-	=22-	=22-	=22-	=22-	=22-	=22-
.	.	.	.	.	.	.	.	.	.	.	.	1ryy	.	.	.	.	.	(2F/	1. ut	2 Vir-	3 in	4. O-	5. Tu-	2f\	.	Prin-	do-	Au-	im-	2a\	-a-	.	-en-	sit	-pem
!	!	!	!	!	!	!	!	!	!	!	!	!	!	!	!	!	!	!	!	!	!	!	!	!	!	!	!	!	!	!LO:TX:t=P:problem=kreska pseudotaktowa	!	!	!	!	!
.	.	.	.	.	.	.	.	.	.	.	.	.	.	.	.	.	.	2G/)	.	-go	mor-	-rat,	-am	4e\	.	.	-lo-	.	-plo-	2g/	.	-go	.	in	im-
.	.	.	.	.	.	.	.	.	.	.	.	.	.	.	.	.	.	.	.	.	.	.	.	4d\	.	.	.	.	.	.	.	.	.	.	.
.	.	.	.	.	.	.	.	.	.	.	.	2r	.	.	.	.	.	2A/	e-	Prin-	-tis	sit	o-	4c/	.	-ceps	.	.	.	4f/	.	Prin-	.	au-	-plo-
.	.	.	.	.	.	.	.	.	.	.	.	.	.	.	.	.	.	.	.	.	.	.	.	4B-/	.	.	.	.	.	4g/	.	.	.	.	.
.	.	.	.	.	.	.	.	.	.	.	.	2F/	1. ut	2 Vir-	3. in	4 Orat,	5. Tuam	2F/	-ru-	-ceps	do-	in	-pem	4c/	.	.	.	.	.	4a\	.	-ceps	.	.	.
!	!	!	!	!	!	!	!	!	!	!	!	!	!	!	!	!	!	!	!	!	!	!	!	!LO:TX:t=P:problem=kreska pseudotaktowa	!	!	!	!	!	!LO:TX:t=P:problem=kreska pseudotaktowa	!	!	!	!	!
.	.	.	.	.	.	.	.	.	.	.	.	.	.	.	.	.	.	.	.	.	.	.	.	4d\	.	.	.	.	.	4b-\	.	.	.	.	.
=23-	=23-	=23-	=23-	=23-	=23-	=23-	=23-	=23-	=23-	=23-	=23-	=23-	=23-	=23-	=23-	=23-	=23-	=23-	=23-	=23-	=23-	=23-	=23-	=23-	=23-	=23-	=23-	=23-	=23-	=23-	=23-	=23-	=23-	=23-	=23-
0r	.	.	.	.	.	0r	.	.	.	.	.	2c\	e-	-go	mor-	sit	o-	1c\	-a-	Vir-	-lo-	au-	im-	4e\	.	Vir-	.	.	.	2cc\	.	.	.	.	.
.	.	.	.	.	.	.	.	.	.	.	.	.	.	.	.	.	.	.	.	.	.	.	.	4f\	.	.	.	.	.	.	.	.	.	.	.
.	.	.	.	.	.	.	.	.	.	.	.	2c\	-ru-	Vir-	-tis	in	-pem	.	.	.	.	.	.	4g\	.	.	.	.	.	2b-\	.	Vir-	.	.	.
.	.	.	.	.	.	.	.	.	.	.	.	.	.	.	.	.	.	.	.	.	.	.	.	4e\	.	.	.	.	.	.	.	.	.	.	.
.	.	.	.	.	.	.	.	.	.	.	.	1d\	-a-	-gi-	dolo-	auri-	implo-	(1d\	.	-gi-	-ri-	-ri-	-plo-	4f\	.	.	.	.	.	2a\	.	.	.	.	.
.	.	.	.	.	.	.	.	.	.	.	.	.	.	.	.	.	.	.	.	.	.	.	.	4e\	.	.	.	.	.	.	.	.	.	.	.
!	!	!	!	!	!	!	!	!	!	!	!	!	!	!	!	!	!	!	!	!	!	!	!	!	!	!	!	!	!	!LO:TX:t=P:problem=kreska pseudotaktowa	!	!	!	!	!
.	.	.	.	.	.	.	.	.	.	.	.	.	.	.	.	.	.	.	.	.	.	.	.	4f\	.	.	.	.	.	2f/	.	.	.	.	.
!	!	!	!	!	!	!	!	!	!	!	!	!	!	!	!	!	!	!	!	!	!	!	!	!LO:TX:t=P:problem=kreska pseudotaktowa	!	!	!	!	!	!	!	!	!	!	!
.	.	.	.	.	.	.	.	.	.	.	.	.	.	.	.	.	.	.	.	.	.	.	.	4g\	.	.	.	.	.	.	.	.	.	.	.
!	!	!	!	!	!	!	!	!	!	!	!	!	!	!	!	!	!	!	!	!	!	!	!	!	!	!	!	!	!	!LO:LB:g=original	!	!	!	!	!
=24-	=24-	=24-	=24-	=24-	=24-	=24-	=24-	=24-	=24-	=24-	=24-	=24-	=24-	=24-	=24-	=24-	=24-	=24-	=24-	=24-	=24-	=24-	=24-	=24-	=24-	=24-	=24-	=24-	=24-	=24-	=24-	=24-	=24-	=24-	=24-
!LO:TX:t=P:problem=kreska pseudotaktowa	!	!	!	!	!	!LO:TX:t=P:problem=kreska pseudotaktowa	!	!	!	!	!	!LO:TX:t=P:problem=kreska pseudotaktowa	!	!	!	!	!	!LO:TX:t=P:problem=kreska pseudotaktowa	!	!	!	!	!	!	!	!	!	!	!	!	!	!	!	!	!
1r	.	.	.	.	.	1r	.	.	.	.	.	1c\	-mur	-nu(m)	-rib(us)	-b(us)	-rat	0c\)	-mur	-nu(m),	-bus	-bus	-rat	2e\	.	.	.	.	.	2g/	.	.	.	.	.
.	.	.	.	.	.	.	.	.	.	.	.	.	.	.	.	.	.	.	.	.	.	.	.	1f\	.	-gi-	.	.	.	2a\	.	.	.	.	.
!	!	!	!	!	!	!LO:TX:t=P:problem=między 4 i 5 zwrotką wykreślony fragment tekstu	!	!	!	!	!	!	!	!	!	!	!	!	!	!	!	!	!	!	!	!	!	!	!	!	!	!	!	!	!
1C/	er-	et	Cli-	Tu-	Pec-	1C/	1. er-	2. et	3. Cli-	4. Tu-	5. Pec-	2r	.	.	.	.	.	.	.	.	.	.	.	.	.	.	.	.	.	1g\	.	-gi-	.	-ri-	.
.	.	.	.	.	.	.	.	.	.	.	.	2c\	er-	et	Cli-	Tu-	Pec-	.	.	.	.	.	.	2e\	.	-nu(m),	-ri-	-ri-	-rat	.	.	.	.	.	.
=25-	=25-	=25-	=25-	=25-	=25-	=25-	=25-	=25-	=25-	=25-	=25-	=25-	=25-	=25-	=25-	=25-	=25-	=25-	=25-	=25-	=25-	=25-	=25-	=25-	=25-	=25-	=25-	=25-	=25-	=25-	=25-	=25-	=25-	=25-	=25-
!	!	!	!	!	!	!	!	!	!	!	!	!	!	!	!	!	!	!	!	!	!	!	!	!	!	!	!	!	!	!LO:TX:t=P:problem=kreska pseudotaktowa	!	!	!	!	!
2D\	-ran-	in-	-en-	-is	-ca-	2D/	-ran-	in-	-en-	-is	-ca-	2.f\	-ran-	in	-en-	-is,	-ca-	2r	.	.	.	.	.	1f\	-mur	.	-bus	-bus	.	1f/	-mur	-num	-tes	-bus	-rat
1D\	-tes	-te-	-tes	per	-tor	1D/	-tes	-te-	.	per	-tor	.	.	.	.	.	.	1F/	er-	et	Cli-	Tu-	Pec-	.	.	.	.	.	.	.	.	.	.	.	.
!	!	!	!	!	!	!	!	!	!	!	!	!LO:TX:t=P:problem=kreska pseudotaktowa	!	!	!	!	!	!	!	!	!	!	!	!	!	!	!	!	!	!	!	!	!	!	!
.	.	.	.	.	.	.	.	.	.	.	.	4e\	.	.	.	per	.	.	.	.	.	.	.	.	.	.	.	.	.	.	.	.	.	.	.
!	!	!	!	!	!	!	!	!	!	!	!	!	!	!	!	!	!	!	!	!	!	!	!	!	!	!	!	!	!	!LO:TX:t=P:problem=kreska pseudotaktowa	!	!	!	!	!
.	.	.	.	.	.	.	.	.	.	.	.	2d\	.	te-	.	a-	.	.	.	.	.	.	.	1r	.	.	.	.	.	1r	.	.	.	.	.
1E\	in	-me-	.	a-	.	1E\	in	-me-	.	a-	mi-	2.c\	.	.	.	-m(a)e-	.	1G/	-ran-	in-	-en-	-is	-ca-	.	.	.	.	.	.	.	.	.	.	.	.
=26-	=26-	=26-	=26-	=26-	=26-	=26-	=26-	=26-	=26-	=26-	=26-	=26-	=26-	=26-	=26-	=26-	=26-	=26-	=26-	=26-	=26-	=26-	=26-	=26-	=26-	=26-	=26-	=26-	=26-	=26-	=26-	=26-	=26-	=26-	=26-
.	.	.	.	.	.	.	.	.	.	.	.	.	.	.	.	.	.	.	.	.	.	.	.	1c\	er-	et	Cli-	Tu-	Pec-	2r	.	.	.	.	.
.	.	.	.	.	.	.	.	.	.	.	.	4B-\	.	.	.	.	.	.	.	.	.	.	.	.	.	.	.	.	.	.	.	.	.	.	.
!LO:TX:t=P:problem=kreska pseudotaktowa	!	!	!	!	!	!LO:TX:t=P:problem=kreska pseudotaktowa	!	!	!	!	!	!	!	!	!	!	!	!	!	!	!	!	!	!	!	!	!	!	!	!	!	!	!	!	!
2F\	.	-ra-	con-	-m(a)e-	mi-	2F\	vi-	-ra-	-tes	-m(a)e-	-sel-	4A/	.	.	.	.	.	1A\	-tes	-fe-	-tes	per	-tor	.	.	.	.	.	.	1f/	er-	#Pec-	et	con-	#Tu-
!	!	!	!	!	!	!	!	!	!	!	!	!LO:TX:t=P:problem=kreska pseudotaktowa	!	!	!	!	!	!	!	!	!	!	!	!	!	!	!	!	!	!	!	!	!	!	!
.	.	.	.	.	.	.	.	.	.	.	.	4G/	.	.	.	.	.	.	.	.	.	.	.	.	.	.	.	.	.	.	.	.	.	.	.
2D\	vi-	.	-for-	.	-sel-	2D/	.	.	con-	.	.	2F/	.	.	-tes	.	-tor	.	.	.	.	.	.	1d\	-ran-	.	-en-	-is	-ca-	.	.	.	.	.	.
1G\	-a	.	.	.	.	1G\	.	.	-for-	.	.	2B-\	.	.	con-	.	mi-	1B-\	in	-me-	con-	a	mi-	.	.	.	.	.	.	1g\	-ran-	-ca-	in-	.	-is
=27-	=27-	=27-	=27-	=27-	=27-	=27-	=27-	=27-	=27-	=27-	=27-	=27-	=27-	=27-	=27-	=27-	=27-	=27-	=27-	=27-	=27-	=27-	=27-	=27-	=27-	=27-	=27-	=27-	=27-	=27-	=27-	=27-	=27-	=27-	=27-
.	.	.	.	.	.	.	.	.	.	.	.	2G/	.	.	.	.	-sel-	.	.	.	.	.	.	2e\	-tes	in-	.	per	-tor	.	.	.	.	.	.
!	!	!	!	!	!	!	!	!	!	!	!	!LO:TX:t=P:problem=kreska pseudotaktowa	!	!	!	!	!	!	!	!	!	!	!	!	!	!	!	!	!	!	!	!	!	!	!
1F\	.	.	.	.	.	1F\	.	.	.	.	.	2c\	.	.	-for-	.	.	1A\	vi-	-ra-	-for-	m(a)e	-sel-	1f\	in	-ter-	-tes	a-	mi-	1a\	-tes	-tor	-ter-	-sor-	per
.	.	.	.	.	.	.	.	.	.	.	.	2A/	.	.	.	.	.	.	.	.	.	.	.	.	.	.	.	.	.	.	.	.	.	.	.
!LO:TX:t=P:problem=kreska pseudotaktowa	!	!	!	!	!	!	!	!	!	!	!	!	!	!	!	!	!	!	!	!	!	!	!	!	!	!	!	!	!	!	!	!	!	!	!
2BB-/	in	.	.	.	.	2BB-/	.	.	.	.	.	2d\	.	.	.	.	.	0G/	.	.	.	.	.	2d\	vi-	-me-	con-	-m(a)e-	-ſel-	1b-\	in	mi-	-me	.	a-
=28-	=28-	=28-	=28-	=28-	=28-	=28-	=28-	=28-	=28-	=28-	=28-	=28-	=28-	=28-	=28-	=28-	=28-	=28-	=28-	=28-	=28-	=28-	=28-	=28-	=28-	=28-	=28-	=28-	=28-	=28-	=28-	=28-	=28-	=28-	=28-
0C/	vi-	.	.	.	.	0C/	.	.	.	.	.	2G/	-tes	-me-	.	.	.	.	.	.	.	.	.	2c\	-a	-ra-	.	.	.	.	.	.	.	.	.
.	.	.	.	.	.	.	.	.	.	.	.	1c\	in	-ra-	.	.	.	.	.	.	.	.	.	1f\	vi-	-ta.	-for-	.	-lus.	1g\	vi-	-sel-	ra-	.	-m(a)e-
.	.	.	.	.	.	.	.	.	.	.	.	2c\	vi-	-ta.	-ta.	-na	.	2G/	-a.	.	.	.	.	2e\	-a.	.	-ta.	-na	.	2g/	-a.	-lus.	-ta	.	-na
=29-	=29-	=29-	=29-	=29-	=29-	=29-	=29-	=29-	=29-	=29-	=29-	=29-	=29-	=29-	=29-	=29-	=29-	=29-	=29-	=29-	=29-	=29-	=29-	=29-	=29-	=29-	=29-	=29-	=29-	=29-	=29-	=29-	=29-	=29-	=29-
00F\;	-a	-ta.	-ta.	-na.	-lus.	00FF/;;	-a.	-ta.	-ta	-na.	-lus.	00c\;;	-a.	.	.	.	-lus.	00F/;;	.	-ta	-ta.	na.	-lus.	00f;/	.	.	.	.	.	00a\;	.	.	.	-ta	.
==	==	==	==	==	==	==	==	==	==	==	==	==	==	==	==	==	==	==	==	==	==	==	==	==	==	==	==	==	==	==	==	==	==	==	==
*-	*-	*-	*-	*-	*-	*-	*-	*-	*-	*-	*-	*-	*-	*-	*-	*-	*-	*-	*-	*-	*-	*-	*-	*-	*-	*-	*-	*-	*-	*-	*-	*-	*-	*-	*-
!!!system-decoration: [(s1,s2,s3,s4,s5,s6)]
!!!EED: Leszek Kubiak
!!!EEV: 2021-03-05
!!!ENC: Mateusz Solarz
!!!END: 2021-02-18
!!!YEC: Copyright 2022 Narodowy Instytut Fryderyka Chopina (https://polishscores.org)
!!!YEM: Licence CC BY 4.0 (https://creativecommons.org/licenses/by/4.0)
